public/images/vs-code.svg

<svg fill="none" height="800" viewBox="0 0 32 32" width="800" xmlns="http://www.w3.org/2000/svg" xmlns:xlink="http://www.w3.org/1999/xlink"><linearGradient id="a" gradientUnits="userSpaceOnUse" x1="23.79" x2="23.79" y1="2" y2="30"><stop offset="0" stop-color="#32b5f1"/><stop offset="1" stop-color="#2b9fed"/></linearGradient><linearGradient id="b" gradientUnits="userSpaceOnUse" x1="21.0018" x2="1.0217" y1="5.53398" y2="22.3051"><stop offset="0" stop-color="#0f6fb3"/><stop offset=".270551" stop-color="#1279b7"/><stop offset=".421376" stop-color="#1176b5"/><stop offset=".618197" stop-color="#0e69ac"/><stop offset=".855344" stop-color="#0f70af"/><stop offset="1" stop-color="#0f6dad"/></linearGradient><linearGradient id="c" gradientUnits="userSpaceOnUse" x1="1.15522" x2="21.0791" y1="9.98389" y2="26.4808"><stop offset="0" stop-color="#1791d2"/><stop offset="1" stop-color="#1173c5"/></linearGradient><path d="m21.0016 3.11679c0-.87896-.9841-.87897-1.4215-.7691.6123-.48343 1.3304-.36622 1.5855-.21973l5.9134 2.89951c.5634.27628.9208.85113.9208 1.4811v19.07453c0 .6384-.3669 1.2194-.9418 1.4912l-5.5643 2.6311c-.3828.1647-1.2138.5713-1.9136-.0001.8748.1649 1.3486-.4577 1.4215-.8789z" fill="url(#a)"/><path d="m19.6512 2.3319c.4642-.09173 1.3506-.04919 1.3506.78495v6.56569l-17.92821 13.56276c-.31337.2371-.75439.1977-1.0213-.0911l-1.847758-1.9994c-.2894678-.3132-.2692144-.8035.045092-1.0915l19.330576-17.71555z" fill="url(#b)"/><path d="m21.0018 22.3708-17.92821-13.56279c-.31337-.23707-.75439-.19773-1.0213.09109l-1.847758 1.9994c-.2894678.3132-.2692144.8035.045092 1.0916l19.330576 17.7155c.8748.1648 1.3487-.4578 1.4216-.879z" fill="url(#c)"/></svg>

<?xml version="1.0" encoding="utf-8"?><!-- Uploaded to: SVG Repo, www.svgrepo.com, Generator: SVG Repo Mixer Tools -->
<svg width="800px" height="800px" viewBox="0 0 32 32" fill="none" xmlns="http://www.w3.org/2000/svg">
<path d="M21.0016 3.11679C21.0016 2.23783 20.0175 2.23782 19.5801 2.34769C20.1924 1.86426 20.9105 1.98147 21.1656 2.12796L27.079 5.02747C27.6424 5.30375 27.9998 5.8786 27.9998 6.50857V25.5831C27.9998 26.2215 27.6329 26.8025 27.058 27.0743L21.4937 29.7054C21.1109 29.8701 20.2799 30.2767 19.5801 29.7053C20.4549 29.8702 20.9287 29.2476 21.0016 28.8264V3.11679Z" fill="url(#paint0_linear_87_8101)"/>
<path d="M19.6512 2.3319C20.1154 2.24017 21.0018 2.28271 21.0018 3.11685V9.68254L3.07359 23.2453C2.76022 23.4824 2.3192 23.443 2.05229 23.1542L0.204532 21.1548C-0.0849358 20.8416 -0.0646824 20.3513 0.249624 20.0633L19.5802 2.34775L19.6512 2.3319Z" fill="url(#paint1_linear_87_8101)"/>
<path d="M21.0018 22.3708L3.07359 8.80801C2.76022 8.57094 2.3192 8.61028 2.05229 8.8991L0.204532 10.8985C-0.0849358 11.2117 -0.0646824 11.702 0.249624 11.9901L19.5802 29.7056C20.455 29.8704 20.9289 29.2478 21.0018 28.8266V22.3708Z" fill="url(#paint2_linear_87_8101)"/>
<defs>
<linearGradient id="paint0_linear_87_8101" x1="23.79" y1="2" x2="23.79" y2="30" gradientUnits="userSpaceOnUse">
<stop stop-color="#32B5F1"/>
<stop offset="1" stop-color="#2B9FED"/>
</linearGradient>
<linearGradient id="paint1_linear_87_8101" x1="21.0018" y1="5.53398" x2="1.0217" y2="22.3051" gradientUnits="userSpaceOnUse">
<stop stop-color="#0F6FB3"/>
<stop offset="0.270551" stop-color="#1279B7"/>
<stop offset="0.421376" stop-color="#1176B5"/>
<stop offset="0.618197" stop-color="#0E69AC"/>
<stop offset="0.855344" stop-color="#0F70AF"/>
<stop offset="1" stop-color="#0F6DAD"/>
</linearGradient>
<linearGradient id="paint2_linear_87_8101" x1="1.15522" y1="9.98389" x2="21.0791" y2="26.4808" gradientUnits="userSpaceOnUse">
<stop stop-color="#1791D2"/>
<stop offset="1" stop-color="#1173C5"/>
</linearGradient>
</defs>
</svg>
